assets/svg/flag.svg

<svg fill="none" height="180" viewBox="0 0 180 180" width="180" xmlns="http://www.w3.org/2000/svg"><path clip-rule="evenodd" d="m179.759 175.84-14.905-35.543c-.073-.301-.193-.588-.356-.851l-22.195-52.9265c-.87-2.0809-2.493-3.7571-4.544-4.6951l-.075-.0292c-1.157-.5217-2.412-.7931-3.681-.7956h-41.0094v-33.0001h20.9994v15.0005c.007 1.6541 1.346 2.9936 3 2.9999h51c1.214 0 2.308-.7309 2.772-1.852.464-1.1212.207-2.4114-.651-3.2692l-12.878-12.8792 12.878-12.8784c.859-.8578 1.115-2.1481.651-3.2692-.465-1.1211-1.558-1.852-2.772-1.8517h-30v-15.0001c.001-.7956-.315-1.5588-.878-2.1217-.563-.5625-1.326-.8785-2.122-.8785h-41.9994v-9.00002c0-1.65691-1.343-2.99988-2.9999-2.99988s-2.9999 1.34297-2.9999 2.99988v78.00012h-41.0097c-3.6278-.0063-6.9026 2.1716-8.2997 5.5195l-37.456562 89.3205c-.063281.166-.111796.338-.1441402.513-.0050272.023-.0120202.044-.0190024.066h-.0000494-.0000087c-.0086232.026-.0172217.052-.0220723.08-.053789.343-.04746092.691.0189844 1.031.0035751.02.0021214.039.000669.059-.001547.02-.0030927.04.0014404.062.0053882.024.016079.045.0267789.066.0095459.019.0190993.038.0249003.059.068555.259.171563.508.306563.74.009822.016.017586.034.025351.052h.000026c.008901.02.017807.04.029818.059l.017227.034c.163476.239.360703.452.585347.634.03663.03.07508.056.11385.082h.00004.00004.00005.00005.00006.00007.00008c.0225.015.0451.03.06752.046.18774.134.39059.247.60399.334l.04467.018c.06205.026.12276.051.18806.072.28547.095.58359.146.88453.152l.00774.001h.0014.00141 173.99977c1.005.001 1.943-.502 2.499-1.338.556-.837.656-1.896.267-2.822zm-42.646-128.7169c.56-.565.876-1.3275.881-2.1231v-9h22.757l-9.879 9.8789c-.562.5625-.879 1.3254-.879 2.121s.317 1.5585.879 2.121l9.879 9.8789h-36.515zm-17.119.8768v7.7579l7.758-7.7579zm-27.0004-29.9999h38.9994v24.0001h-38.9994zm-2.9999 108c-.7959 0-1.5592-.316-2.1217-.879-.5628-.562-.8789-1.325-.8778-2.122v-2.739c-3.7723.37-7.1304 2.548-9.006 5.842 2.6202 4.016 7.226 6.278 12.0058 5.897 8.0652 0 11.813-5.025 12.006-6.102-1.977-3.163-5.2974-5.241-9.0061-5.637v2.74c0 .796-.316 1.559-.8785 2.121-.5629.563-1.3261.879-2.1217.879zm-46.7786-37.1602c.4666-1.1162 1.5589-1.8421 2.7686-1.8397h13.5323c-7.7688 3.9512-15.0293 8.8302-21.6225 14.5309zm32.2577-1.8397c-16.7984 5.5674-31.8217 15.4859-43.5407 28.7469l-23.87145 56.928c12.75745-3.266 43.56945-12.046 57.72655-23.822-12.5726-4.738-20.7935-13.105-20.7935-22.853 0-12.226 13.0605-22.66 32.4963-25.965 1.0565-.1797 2.1291.218 2.8132 1.043.6842.825.8761 1.952.5038 2.957-.3726 1.006-1.253 1.736-2.3094 1.916-16.1954 2.754-27.5041 10.998-27.5041 20.049 0 11.383 17.8593 21 38.9998 21 21.1407 0 38.9997-9.616 38.9997-21 0-9.051-11.308-17.295-27.504-20.049-1.056-.18-1.9367-.91-2.309-1.915-.3726-1.005-.1803-2.133.5038-2.958.6842-.825 1.7572-1.2223 2.8132-1.042 3.193.54 6.342 1.318 9.419 2.326 3.22-6.1327 7.867-11.4015 13.549-15.3619h-32.4718v27.2469c9.1108 1.18 14.9998 7.438 14.9998 11.753 0 4.777-7.178 12-17.9997 12-10.8221 0-18-7.223-18-12 0-4.315 5.8898-10.573 15.0002-11.753v-27.2469zm-49.9789 86.9999c16.1037-5.014 36.8424-12.985 46.9062-23.072 5.7589 1.4 11.6666 2.095 17.5932 2.072 25.2337 0 44.9997-11.859 44.9997-27 0-8.697-6.633-16.472-17.445-21.435 4.163-7.4701 10.713-13.3264 18.601-16.6304.263.2601.473.5674.623.9052l21.903 52.2332c-11.63 26.114-53.824 32.5-56.881 32.927zm136.1901-25.751c-8.056 13.214-22.754 21.131-35.523 25.751h46.321z" fill="#fff" fill-rule="evenodd"/></svg>

<svg width="180" height="180" viewBox="0 0 180 180" fill="none" xmlns="http://www.w3.org/2000/svg">
<path fill-rule="evenodd" clip-rule="evenodd" d="M179.759 175.84L164.854 140.297C164.781 139.996 164.661 139.709 164.498 139.446L142.303 86.5195C141.433 84.4386 139.81 82.7624 137.759 81.8244L137.684 81.7952C136.527 81.2735 135.272 81.0021 134.003 80.9996H92.9936V47.9995H113.993V63C114 64.6541 115.339 65.9936 116.993 65.9999H167.993C169.207 65.9999 170.301 65.269 170.765 64.1479C171.229 63.0267 170.972 61.7365 170.114 60.8787L157.236 47.9995L170.114 35.1211C170.973 34.2633 171.229 32.973 170.765 31.8519C170.3 30.7308 169.207 29.9999 167.993 30.0002H137.993V15.0001C137.994 14.2045 137.678 13.4413 137.115 12.8784C136.552 12.3159 135.789 11.9999 134.993 11.9999H92.9936V2.99988C92.9936 1.34297 91.6506 0 89.9937 0C88.3368 0 86.9938 1.34297 86.9938 2.99988V81H45.9841C42.3563 80.9937 39.0815 83.1716 37.6844 86.5195L0.227838 175.84C0.164557 176.006 0.116042 176.178 0.0836978 176.353C0.0786706 176.376 0.0716776 176.397 0.0646954 176.419L0.064646 176.419L0.0646373 176.419C0.0560141 176.445 0.0474156 176.471 0.042565 176.499C-0.011224 176.842 -0.00489592 177.19 0.0615494 177.53C0.0651245 177.55 0.0636708 177.569 0.0622184 177.589C0.0606714 177.609 0.0591257 177.629 0.0636588 177.651C0.069047 177.675 0.0797378 177.696 0.0904377 177.717C0.0999836 177.736 0.109537 177.755 0.115338 177.776C0.183893 178.035 0.286901 178.284 0.421901 178.516C0.431723 178.532 0.439487 178.55 0.447252 178.568L0.447278 178.568C0.456179 178.588 0.465085 178.608 0.477096 178.627L0.494323 178.661C0.657799 178.9 0.855026 179.113 1.07967 179.295C1.1163 179.325 1.15475 179.351 1.19352 179.377L1.19356 179.377L1.1936 179.377L1.19365 179.377L1.1937 179.377L1.19376 179.377L1.19383 179.377L1.19391 179.377C1.21641 179.392 1.23901 179.407 1.26143 179.423C1.44917 179.557 1.65202 179.67 1.86542 179.757L1.91009 179.775C1.97214 179.801 2.03285 179.826 2.09815 179.847C2.38362 179.942 2.68174 179.993 2.98268 179.999L2.99042 180H2.99182H2.99323H176.993C177.998 180.001 178.936 179.498 179.492 178.662C180.048 177.825 180.148 176.766 179.759 175.84ZM137.113 47.1231C137.673 46.5581 137.989 45.7956 137.994 45V36H160.751L150.872 45.8789C150.31 46.4414 149.993 47.2043 149.993 47.9999C149.993 48.7955 150.31 49.5584 150.872 50.1209L160.751 59.9998H124.236L137.113 47.1231ZM119.994 47.9999V55.7578L127.752 47.9999H119.994ZM92.9936 18H131.993V42.0001H92.9936V18ZM89.9937 126C89.1978 126 88.4345 125.684 87.872 125.121C87.3092 124.559 86.9931 123.796 86.9942 122.999V120.26C83.2219 120.63 79.8638 122.808 77.9882 126.102C80.6084 130.118 85.2142 132.38 89.994 131.999C98.0592 131.999 101.807 126.974 102 125.897C100.023 122.734 96.7026 120.656 92.9939 120.26V123C92.9939 123.796 92.6779 124.559 92.1154 125.121C91.5525 125.684 90.7893 126 89.9937 126ZM43.2151 88.8398C43.6817 87.7236 44.774 86.9977 45.9837 87.0001H59.516C51.7472 90.9513 44.4867 95.8303 37.8935 101.531L43.2151 88.8398ZM75.4728 87.0001C58.6744 92.5675 43.6511 102.486 31.9321 115.747L8.06065 172.675C20.8181 169.409 51.6301 160.629 65.7872 148.853C53.2146 144.115 44.9937 135.748 44.9937 126C44.9937 113.774 58.0542 103.34 77.49 100.035C78.5465 99.8553 79.6191 100.253 80.3032 101.078C80.9874 101.903 81.1793 103.03 80.807 104.035C80.4344 105.041 79.554 105.771 78.4976 105.951C62.3022 108.705 50.9935 116.949 50.9935 126C50.9935 137.383 68.8528 147 89.9933 147C111.134 147 128.993 137.384 128.993 126C128.993 116.949 117.685 108.705 101.489 105.951C100.433 105.771 99.5523 105.041 99.18 104.036C98.8074 103.031 98.9997 101.903 99.6838 101.078C100.368 100.253 101.441 99.8557 102.497 100.036C105.69 100.576 108.839 101.354 111.916 102.362C115.136 96.2293 119.783 90.9605 125.465 87.0001H92.9932V114.247C102.104 115.427 107.993 121.685 107.993 126C107.993 130.777 100.815 138 89.9933 138C79.1712 138 71.9933 130.777 71.9933 126C71.9933 121.685 77.8831 115.427 86.9935 114.247V87.0001H75.4728ZM25.4939 174C41.5976 168.986 62.3363 161.015 72.4001 150.928C78.159 152.328 84.0667 153.023 89.9933 153C115.227 153 134.993 141.141 134.993 126C134.993 117.303 128.36 109.528 117.548 104.565C121.711 97.0949 128.261 91.2386 136.149 87.9346C136.412 88.1947 136.622 88.502 136.772 88.8398L158.675 141.073C147.045 167.187 104.851 173.573 101.794 174H25.4939ZM161.684 148.249C153.628 161.463 138.93 169.38 126.161 174H172.482L161.684 148.249Z" fill="white"/>
</svg>
